public/images/assets/icon@proof.svg

<svg width="60" height="60" viewBox="0 0 60 60" fill="none" xmlns="http://www.w3.org/2000/svg">
<rect width="60" height="60" fill="white"/>
<path d="M27.5205 26.1531C23.3327 26.1531 19.9164 22.7367 19.9164 18.549C19.9164 14.4163 23.3327 11 27.5205 11C31.7082 11 35.1245 14.4163 35.1245 18.6041C35.1245 22.7918 31.7082 26.1531 27.5205 26.1531Z" fill="#1126E0"/>
<path d="M36.502 49.1858H57C57 49.1858 54.1347 35.8511 47.0265 25.3266C45.0428 22.1858 39.8081 19.3756 35.951 23.7286C32.2592 27.9164 28.6775 42.0776 28.6775 42.0776C28.6775 42.0776 26.6939 42.0776 24.1041 42.0776L24.049 42.0225H21.349L21.4041 42.0776C17.4367 42.0776 13.3041 42.0776 13.3041 42.0776C13.249 42.0776 13.1388 42.0776 13.0837 42.0776L12.8633 41.8572C12.3122 42.0225 11.651 42.3531 10.9898 42.7939L11.0449 42.849C10.2184 43.5102 9.61224 44.447 9.61224 45.6041C9.61224 47.5327 11.2102 49.1858 13.1388 49.1858H34.2428L42.0122 32.2143C42.2326 31.7184 42.8388 31.498 43.3347 31.7184C43.8306 31.9388 44.051 32.5449 43.8306 33.0409L36.502 49.1858Z" fill="#1126E0"/>
<path d="M17.547 31.4979L16.6102 30.6163L20.6878 26.2081L21.6245 27.0898L17.547 31.4979Z" fill="#F4BB28"/>
<path d="M19.6408 34.3082L19.1449 33.0959L26.3082 30.1755L26.8041 31.3878L19.6408 34.3082Z" fill="#F4BB28"/>
<path d="M14.9572 29.3489L13.6347 29.1285L14.8469 21.9102L16.1694 22.1306L14.9572 29.3489Z" fill="#F4BB28"/>
<path d="M9.94289 29.1286L8.17963 20.4775L9.44697 20.202L11.2102 28.853L9.94289 29.1286Z" fill="#F4BB28"/>
<path d="M5.53469 34.1427C5.36939 33.9774 5.25918 33.8672 5.20408 33.7019H12.4775C13.1939 33.7019 13.9102 34.1427 14.8469 35.1345L21.349 41.9672H24.049L16.2796 33.8121C15.2878 32.7652 14.1306 31.7733 12.4775 31.7733H4.76326C3.66122 31.7733 3.22041 32.4345 3.1102 32.7101C2.9449 33.1509 2.77959 34.1427 4.10204 35.5203L11.0449 42.7937C11.7061 42.3529 12.3122 42.0774 12.9184 41.857L5.53469 34.1427Z" fill="#F4BB28"/>
</svg>

<?xml version="1.0" encoding="utf-8"?>
<!-- Generator: Adobe Illustrator 23.0.1, SVG Export Plug-In . SVG Version: 6.00 Build 0)  -->
<svg version="1.1" id="Layer_1" xmlns="http://www.w3.org/2000/svg" xmlns:xlink="http://www.w3.org/1999/xlink" x="0px" y="0px"
	 viewBox="0 0 60 60" style="enable-background:new 0 0 60 60;" xml:space="preserve">
<style type="text/css">
	.st0{fill:#1126E0;}
	.st1{fill:#F4BB28;}
</style>
<g>
	<path class="st0" d="M27.5,26.2c-4.2,0-7.6-3.4-7.6-7.6c0-4.1,3.4-7.5,7.6-7.5c4.2,0,7.6,3.4,7.6,7.6
		C35.1,22.8,31.7,26.2,27.5,26.2z"/>
	<path class="st0" d="M36.5,49.2H57c0,0-2.9-13.3-10-23.9c-2-3.1-7.2-6-11.1-1.6c-3.7,4.2-7.3,18.3-7.3,18.3s-2,0-4.6,0L24,42h-2.7
		l0.1,0.1c-4,0-8.1,0-8.1,0c-0.1,0-0.2,0-0.2,0l-0.2-0.2c-0.6,0.2-1.2,0.5-1.9,0.9l0.1,0.1c-0.8,0.7-1.4,1.6-1.4,2.8
		c0,1.9,1.6,3.6,3.5,3.6h21.1l7.8-17c0.2-0.5,0.8-0.7,1.3-0.5c0.5,0.2,0.7,0.8,0.5,1.3L36.5,49.2z"/>
	<path class="st1" d="M17.5,31.5l-0.9-0.9l4.1-4.4l0.9,0.9L17.5,31.5z"/>
	<path class="st1" d="M19.6,34.3l-0.5-1.2l7.2-2.9l0.5,1.2L19.6,34.3z"/>
	<path class="st1" d="M15,29.3l-1.3-0.2l1.2-7.2l1.3,0.2L15,29.3z"/>
	<path class="st1" d="M9.9,29.1l-1.8-8.7l1.3-0.3l1.8,8.7L9.9,29.1z"/>
	<path class="st1" d="M5.5,34.1c-0.2-0.2-0.3-0.3-0.3-0.4h7.3c0.7,0,1.4,0.4,2.4,1.4l6.5,6.8H24l-7.8-8.2c-1-1-2.1-2-3.8-2H4.8
		c-1.1,0-1.5,0.7-1.7,0.9c-0.2,0.4-0.3,1.4,1,2.8l6.9,7.3c0.7-0.4,1.3-0.7,1.9-0.9L5.5,34.1z"/>
</g>
</svg>
